X:44
T:Vulcan’s Cave. WCF.044
T:King of the Cannibal Isles,aka. WCF.044
M:6/8
L:1/8
Q:3/8=110
S:Wm Clarke MS, Feltwell, 1858
O:England
A:Norfolk
N:Bar 22 should be same rhythm as preceeding bar.
N:Cotton Lords of Preston.
Z:Transcribed Lyn Law 04/2006
K:D
A|f2e d2c|c2B A2F|GFG E2A|F2G A2A|!
B2G d2B|A2F B2c|cde ABc|(d3d2):|!
|:A|f2f f2e|f2f f2e|f2f a2f|efe e2c|!
d2d d2c|d2d d2c|dcd e2d|cBc ABc|!
d3cBA|BAB ABc|d3cBA|B2c d2f|!
“sic”edef|e2d e2f|a2A ABc|d3-d2:|]

